public/formular-icons/greece/lower-chi.svg

<svg style="vertical-align:-.462ex" xmlns="http://www.w3.org/2000/svg" width="1.416ex" height="1.462ex" viewBox="0 -442 626 646" xmlns:xlink="http://www.w3.org/1999/xlink"><defs><path id="a" d="M576-125q0-22-29-50t-60-29h-11q-82 0-113 47-29 43-70 183l-9 33q-1-1-36-40t-78-85-78-85-39-40q-4-3-10-3-7 0-12 5t-6 12 13 23T151-30l121 132-7 29q-76 274-130 274-31 0-48-47-1-7-19-7-20 0-20 10 0 8 8 25t33 37 59 19q76 0 110-42 18-25 39-80t33-98l11-42q3 0 114 123t118 126q6 2 9 2 18 0 18-17 0-7-13-22T477 270Q356 138 353 134l9-32q30-112 66-191t62-79q14 0 27 12t19 30q3 10 7 11t14 1 14-1q5-3 5-10Z"/></defs><g stroke="currentColor" fill="currentColor" stroke-width="0"><use data-c="1D712" xlink:href="#a" transform="scale(1 -1)"/></g></svg>

<svg style="vertical-align: -0.462ex" xmlns="http://www.w3.org/2000/svg" width="1.416ex" height="1.462ex" role="img" focusable="false" viewBox="0 -442 626 646" xmlns:xlink="http://www.w3.org/1999/xlink"><defs><path id="MJX-130-TEX-I-1D712" d="M576 -125Q576 -147 547 -175T487 -204H476Q394 -204 363 -157Q334 -114 293 26L284 59Q283 58 248 19T170 -66T92 -151T53 -191Q49 -194 43 -194Q36 -194 31 -189T25 -177T38 -154T151 -30L272 102L265 131Q189 405 135 405Q104 405 87 358Q86 351 68 351Q48 351 48 361Q48 369 56 386T89 423T148 442Q224 442 258 400Q276 375 297 320T330 222L341 180Q344 180 455 303T573 429Q579 431 582 431Q600 431 600 414Q600 407 587 392T477 270Q356 138 353 134L362 102Q392 -10 428 -89T490 -168Q504 -168 517 -156T536 -126Q539 -116 543 -115T557 -114T571 -115Q576 -118 576 -125Z"></path></defs><g stroke="currentColor" fill="currentColor" stroke-width="0" transform="scale(1,-1)"><g data-mml-node="math"><g data-mml-node="mi"><use data-c="1D712" xlink:href="#MJX-130-TEX-I-1D712"></use></g></g></g></svg>
